X: 183
T: I Am the Fox
C: Teton Sioux band 1911-1914
N: Derived from sioux178.krn
O: South Dakota, U.S.A.
N: Teton Sioux Music by Frances Densmore, 1918
Z: transcribed to **kern format by Craig Sapp
L: 1/8
M: 2/4
Q: 1/4=58
K: C clef=bass
%%linebreak <none>
A A [I:setbarnb 1]| 
A< E A/ E3/ | 
E4- | 
E2E A | 
A< E A/ E3/ | 
E2-E C/ C/ ||  
[M:3/4]C C C C B, B, | 
A, A, E, E, E, A, ||  
[M:2/4]E, E, E, E, | 
E,4 | 
E,4 | 
E,3E | 
A (A/ E/) E (F/ E/) | 
E2-E/ C/ C | 
C C C C | 
B, B, B, B, ||  
[M:3/4]A, A, (A,< E,) E, B, ||  
[M:2/4]A, A, E, E, | 
E,3C, | 
E,2E,2 | 
E,2z2 |]  



